X:2
T:O Grada's No.2
C:Traditional
S:Conal O Grada
N:Play three times through
N:The Cashel Set, figure 3, tune 2 of 2
Z:Gordon Turnbull, Edinburgh
Z:gturnbull@theflow.org.uk
Z:http://www.theflow.org.uk
R:Polka
M:2/4
L:1/8
K:AMix
A>B ce | ae fa | A>B ce | c/B/A B2 |\
A>B ce | ae fa | fa/f/ ec | BA A2 :|
{B}c2 -c>B | ce fe | c2 -c>e | c/B/A B2 |\
c2 -c>B | ce fe | fa/f/ ec | BA A2:|
